-----BEGIN PGP PUBLIC KEY BLOCK-----

mQINBGq/9yoBEADp6Eow3b0VMtbUSVS83TLezdHu9q48xPGiSPituFVaUyOz0Afb
bXrDfxLTxqYin1teF9fXSaiAqgnFjoW4uz0TPPpMr2gRL2XsDdNOuzz4gs1VHs6K
y0nwKkveHP/HzrRsW3GvKfY1kJGX9V/SWw0Qf4mIwuxFdI4bZaXFTzJKlrCmbIjG
RPsQFZWehCDLkW47cPTPzkOL7V6fp/D2DbpF5K/wmVLped9tR6LgBgH3w6MxgKMr
HyHe34tSenDwJDh+ntQJ8Ld8hVZhSjYl0uHpXkl3blEn9fZ5ZZwFhEdq2/Tr3je4
b5+JZs6mPY6JMRyKKdK8E38HyumML9nIV6MZBIaSqg0B4dKSJfAsQjJcYqt409YH
BaXVZDLLHeyABWAsUTPtqdwoAMDjEEmFDDLebc7c0Cdol5GS6jnwVVekZ1gNVHAk
5awsWy4KzsBsDrnScZDxFuF81nfChyZgq5Gq+UUxfzIC9+V29NbjcJIgTMg44gsJ
5k8/E4wlgEsLFja2jXqs3vArhEJHv/De5wW6A4VP67anUwYZIOwTyVMgbbyn6XIz
sqz6c9IwM49rRYIqyQKBSQ6vIzX0u+iuhyHktWi5DUAt4oJwAv7zsv3FGiqQZGdB
QnJ4QqSgNWB9iRdN8u3GN6njcgjuLefipRRl2U3kBMsDWs/Ug4ga7CRvWQARAQAB
tDNtYXNncm91cCAoZ2l0aHViOm1hc2dyb3VwMjAwMCkgPG1hc2dyb3VwQHByb3Rv
bi5tZT6JAlQEEwEKAD4WIQStl0KYOBOakbbwAc1875g41sF0xAUCar/3KgIbAwUJ
JZgGAAULCQgHAgYVCgkICwIEFgIDAQIeAQIXgAAKCRB875g41sF0xL4nD/0TTNCh
PO6HQjcRXRhZ0txd37RgLjBlM8/r8hoE1NPyisf1FAa+17a9SccFB0NM4hBnZqNp
ny0964jUYbv63+Wn9RT9QqRxC3xuT0Kg2kyq+MN0MJAxXB+Ytf65YTpypdAqkLRC
/02zIM9ArZ83pd2ScnzEu/aZ6l28CVm/TM76hyYqIBnB8naXDgk3cbi1F9CcUjAh
f80IsquOgNQX/8sEF1T0BaUwe305AATRqL8ophPN0km1bxWNTMuCCRV77PFLHdy8
gehPj33rRB9cm8yCctyq1JyKvlUUmN6G6WnqoQ/cvw+i8I9yfp1pSGPJdI2DH7f/
E7+IJzMWVs0gYVE1jN/0vnsrE0ZUSl8SosERWWrHPjMmj3yeTEbKI5x8Lhqc2Kms
yNn1Q7prWXd+fg5dxcrlpNc5nR+RYl0d96K52aGvMC/FQwta34vIWaYNZsv78U8b
a0dow2HL2CpLa7gFJa8jjYkWI7nh6uzpG4Jjguo90w+8/vWiihBkTPm/qh+adW/H
uvYcOLdNVnI6ebc1Sl8zM2LN6CteS95hp6ifuNFqU2yshZjOzsJI6i3pwaif+ysr
25OVRjw+YbW+++QoYGceT6lVVZiyxluWy5ZcBuiLEz8HOuYvraEXK412N+kIgeCs
71KEnczcnGMBI1rNjrs1sz4WU2C3UmddSfkAxLkCDQRqv/cqARAA3djaNU+BN2t5
VR2E3stwIIDgufbO94NE0ABlDLdIN9QbACi/fx0G5NNz0pHe5xPMB0V9uY8gLj2A
R0bqExSKzJWNrCSLcX5yR1F8c4ARaWiLTFiSz/MdgNur4PJJTBqAdp6orUSKImqv
vNoFwbbHndKF+Ne3L4IFD0NOSPRZ5TKgdSQI3y7A5FXMYyiLrmj+6uupSn2DM79H
qlve+SlychgPk/OBqmMJr7/+d6ZJsbWeWkLPR0bDG9FnHbdFck+A/9RXAb3cIPws
o+c6fJ+d57o0RyQhUVggp+91AMqDx4Oazg7XkJ+QW2PyhsunbWq5Wa42GbBwqrJ2
pBxCLrMLluFcvOGGo1Etlr8xhprMBaAuqaeeZrSByj0rRtf0hSs3vR/tk21qEalY
l0WhTVlr/TWSgjQ4ppXDpDcFrlnHjcCvy+5tHuG5ayG6c06nxQT/BiV0cAzCJw45
/ftAv4KO23pBPT2OxTSx83G7uzECcIW8om5B44nqY5bzeMcleMDUpcS46FU9igb9
43fFJkg/GNh+PfvRZFtIDLqSTVtvsbKliUOblcLE3b2AkuZDBomvVPO/CrbfG/BA
EY8OCoQZTgIjVkuj/B7dR4nOOXUJHRriAANZpnJM8+Pf8jgOxZ89Rp8oHS/rFI3r
/ssoUFZ+Vv13Z6ex00LS/sJQ0P/Ucn8AEQEAAYkCPAQYAQoAJhYhBK2XQpg4E5qR
tvABzXzvmDjWwXTEBQJqv/cqAhsMBQklmAYAAAoJEHzvmDjWwXTEecsP/0RBmMJj
yiDSeNEbQ4+QLt1E+Luyvl2lcjEBWEQwvGTF3RMrc6PxnkYlqYObnxLIfkNss1p0
RwbxAcmfgKMdu4pOc3H2lZr51PppDd2eLtx6b0TvwNUABGoN8aLwm8qIabv2BVV2
IV+yjzGKNdAVtBUEDVacF2QrN9PakPRsp95cs/7f1he83gFdCXOV0cS21pmqZ8Pc
8RcaDnPntWUM7LJFj0V1d5e1Luy/eDSaGGXLBW7Arnbx0QXueT4ztPzCszlfmg6K
sZo+XGN72XFWBAzdfomtKtneP0DmJKJbVtVINKPgycqTBisF6dbtUFqMbG7rDGt+
W/gVPY5Pwg298i0ngu3F1qfWVayHv62Tic7DYBFxa3sMOu0t426v42rP6+wasXlA
YiLMbKmw05ix4BIadZetOB6kMk30Da2TZHRgJd7c36tuRuQlyOt8HWJK1RmrBgW/
gMI68j6Bfq/6wOevMgZyTNdixvqX3PIey5Pm+69H6xoMQ6BeOoEGUdJPOQsOtnJI
mzWYPvmRFXKsx/6PJHlkPJ0dlx158dCAQdlCaZlNUeSpKf+XtmekjkRtg+yo2exR
KANVyDRoB5MFYkMGqtt/VJaJll0w+96MVMRNsbZoFqK+1aAlQ1CiOYKpfGFIUaQ6
7I+QYp0U/lYzBZ5bhEWBpExloJwwjn7p/fKE
=0WZK
-----END PGP PUBLIC KEY BLOCK-----
